X: 33165
T: Prins Karel
R: jig
M: 6/8
K: Adorian
A3 A2G|A3 A2B|c2B c2d|e3 edc|
B2A B2c|d3 ded|cBA BAG|1 A3 A2e:|2 A3 Ace||
|:a3 a2g|f3 fga|gfe fed|e3 edc|
B2A B2c|d3 ded|cBA BAG|1 A3 Ace:|2 A3 A2e||

